public/assets/heart-gray.svg

<svg xmlns="http://www.w3.org/2000/svg" width="24" height="24" viewBox="0 0 24 24" fill="none">
  <path d="M9.06596 17.6154L8.6945 18.0865V18.0865L9.06596 17.6154ZM11.7133 5.93062L11.281 6.3467C11.3941 6.46422 11.5502 6.53062 11.7133 6.53062C11.8764 6.53062 12.0325 6.46422 12.1456 6.3467L11.7133 5.93062ZM14.3606 17.6154L13.9892 17.1442L14.3606 17.6154ZM9.43741 17.1442C8.11995 16.1056 6.66995 15.0846 5.52021 13.7899C4.39105 12.5184 3.6 11.0305 3.6 9.09918H2.4C2.4 11.405 3.36007 13.1647 4.62296 14.5868C5.86527 15.9856 7.44825 17.1041 8.6945 18.0865L9.43741 17.1442ZM3.6 9.09918C3.6 7.20505 4.67037 5.61387 6.13577 4.94403C7.56333 4.29149 9.47413 4.46944 11.281 6.3467L12.1456 5.51454C10.0316 3.31819 7.58575 2.96182 5.63689 3.85265C3.72585 4.72619 2.4 6.75609 2.4 9.09918H3.6ZM8.6945 18.0865C9.14132 18.4388 9.61758 18.8116 10.0994 19.0932C10.581 19.3746 11.1253 19.6 11.7133 19.6V18.4C11.4299 18.4 11.1029 18.2897 10.7048 18.0571C10.307 17.8246 9.89526 17.5051 9.43741 17.1442L8.6945 18.0865ZM14.7321 18.0865C15.9783 17.1041 17.5613 15.9856 18.8036 14.5868C20.0665 13.1647 21.0266 11.405 21.0266 9.09918H19.8266C19.8266 11.0305 19.0355 12.5184 17.9064 13.7899C16.7566 15.0846 15.3066 16.1056 13.9892 17.1442L14.7321 18.0865ZM21.0266 9.09918C21.0266 6.75609 19.7007 4.72619 17.7897 3.85265C15.8408 2.96182 13.395 3.31819 11.281 5.51454L12.1456 6.3467C13.9524 4.46944 15.8632 4.29149 17.2908 4.94403C18.7562 5.61387 19.8266 7.20505 19.8266 9.09918H21.0266ZM13.9892 17.1442C13.5313 17.5051 13.1196 17.8246 12.7217 18.0571C12.3237 18.2897 11.9966 18.4 11.7133 18.4V19.6C12.3013 19.6 12.8455 19.3746 13.3272 19.0932C13.809 18.8116 14.2852 18.4388 14.7321 18.0865L13.9892 17.1442Z" fill="#5C5C7B"/>
</svg>

<?xml version="1.0" encoding="utf-8"?>
<!-- Generator: Adobe Illustrator 27.5.0, SVG Export Plug-In . SVG Version: 6.00 Build 0)  -->
<svg version="1.1" id="Layer_1" xmlns="http://www.w3.org/2000/svg" xmlns:xlink="http://www.w3.org/1999/xlink" x="0px" y="0px"
	 viewBox="0 0 24 24" style="enable-background:new 0 0 24 24;" xml:space="preserve">
<style type="text/css">
	.st0{fill:#F28705;}
</style>
<path class="st0" d="M9.1,17.6l-0.4,0.5l0,0L9.1,17.6z M11.7,5.9l-0.4,0.4c0.1,0.1,0.3,0.2,0.4,0.2c0.2,0,0.3-0.1,0.4-0.2L11.7,5.9z
	 M14.4,17.6L14,17.1L14.4,17.6z M9.4,17.1c-1.3-1-2.8-2.1-3.9-3.4C4.4,12.5,3.6,11,3.6,9.1H2.4c0,2.3,1,4.1,2.2,5.5
	c1.2,1.4,2.8,2.5,4.1,3.5L9.4,17.1z M3.6,9.1c0-1.9,1.1-3.5,2.5-4.2c1.4-0.7,3.3-0.5,5.1,1.4l0.9-0.8C10,3.3,7.6,3,5.6,3.9
	C3.7,4.7,2.4,6.8,2.4,9.1H3.6z M8.7,18.1c0.4,0.4,0.9,0.7,1.4,1c0.5,0.3,1,0.5,1.6,0.5v-1.2c-0.3,0-0.6-0.1-1-0.3
	c-0.4-0.2-0.8-0.6-1.3-0.9L8.7,18.1z M14.7,18.1c1.2-1,2.8-2.1,4.1-3.5c1.3-1.4,2.2-3.2,2.2-5.5h-1.2c0,1.9-0.8,3.4-1.9,4.7
	c-1.1,1.3-2.6,2.3-3.9,3.4L14.7,18.1z M21,9.1c0-2.3-1.3-4.4-3.2-5.2c-1.9-0.9-4.4-0.5-6.5,1.7l0.9,0.8c1.8-1.9,3.7-2.1,5.1-1.4
	c1.5,0.7,2.5,2.3,2.5,4.2H21z M14,17.1c-0.5,0.4-0.9,0.7-1.3,0.9c-0.4,0.2-0.7,0.3-1,0.3v1.2c0.6,0,1.1-0.2,1.6-0.5
	c0.5-0.3,1-0.7,1.4-1L14,17.1z"/>
</svg>
